packages/core/src/svgs/tokens/branded/DC.svg

<svg width="24" height="24" viewBox="0 0 24 24" fill="none" xmlns="http://www.w3.org/2000/svg">
<path d="M15.6449 14.9949L13.245 12.025V6.275L15.8149 10.635L17.4999 9.37L19.055 12.2649L15.6449 14.9949ZM19.17 12.4749L22 17.75H2L6.27999 11.63L10.42 15.465L13.1199 12.25L15.6049 15.33L19.17 12.48V12.4749ZM6.41999 11.43L10.4 15.125L13 12.0199V6.25L10.605 9.68999L8.96999 7.78L6.41999 11.43Z" fill="#FF3300"/>
</svg>

<svg xmlns="http://www.w3.org/2000/svg" width="24" height="24" fill="none" viewBox="0 0 24 24">
    <path fill="#F30" d="m15.645 14.995-2.4-2.97v-5.75l2.57 4.36L17.5 9.37l1.555 2.895zm3.525-2.52L22 17.75H2l4.28-6.12 4.14 3.835 2.7-3.215 2.485 3.08 3.565-2.85zM6.42 11.43l3.98 3.695L13 12.02V6.25l-2.395 3.44L8.97 7.78z"/>
</svg>
